Newaita-dark/apps/64/libreoffice-base.svg

<svg height="64" viewBox="0 0 64 64" width="64" xmlns="http://www.w3.org/2000/svg" xmlns:xlink="http://www.w3.org/1999/xlink"><linearGradient id="a" gradientTransform="matrix(.148824 0 0 .125012 -5.260672 26.87757)" gradientUnits="userSpaceOnUse" x1="254" x2="254" y1="233.5" y2="254.666672"><stop offset="0" stop-opacity=".27451"/><stop offset="1" stop-opacity="0"/></linearGradient><linearGradient id="b"><stop offset="0" stop-opacity=".313726"/><stop offset=".222222" stop-opacity=".27451"/><stop offset="1" stop-opacity="0"/></linearGradient><radialGradient id="c" cx="450.908936" cy="189.579361" gradientTransform="matrix(.00000035 -.156265 -.281277 -.0000002 100.953697 127.190665)" gradientUnits="userSpaceOnUse" r="21.166656" xlink:href="#b"/><radialGradient id="d" cx="450.908936" cy="189.579361" gradientTransform="matrix(-.00000035 .156265 .281277 .0000002 -37.447629 -15.054958)" gradientUnits="userSpaceOnUse" r="21.166656" xlink:href="#b"/><radialGradient id="e" cx="450.908936" cy="189.579361" gradientTransform="matrix(-.00000035 -.156265 .281277 -.0000002 -37.447629 127.190665)" gradientUnits="userSpaceOnUse" r="21.166656" xlink:href="#b"/><radialGradient id="f" cx="450.908936" cy="189.579361" gradientTransform="matrix(.00000035 .156265 -.281277 .0000002 100.953693 -15.054959)" gradientUnits="userSpaceOnUse" r="21.166656" xlink:href="#b"/><linearGradient id="g"><stop offset="0" stop-color="#ec407a"/><stop offset="1" stop-color="#f06292"/></linearGradient><linearGradient id="h" gradientUnits="userSpaceOnUse" x1="31.753056" x2="31.753056" xlink:href="#g" y1="56.06789790428" y2="5.79222438278"/><linearGradient id="i" gradientUnits="userSpaceOnUse" x1="31.753056" x2="31.753056" y1="53.42180990428" y2="8.43831238278"><stop offset="0" stop-color="#e0e0e0"/><stop offset="1" stop-color="#eee"/></linearGradient><linearGradient id="j" gradientUnits="userSpaceOnUse" x1="31.753057" x2="31.753057" xlink:href="#g" y1="39.52987790428" y2="21.00725988664"/><path d="m15.214844 56.066406h33.078125v2.648438h-33.078125zm0 0" fill="url(#a)"/><path d="m48.292969 56.066406h5.289062v-2.644531h-5.289062zm0 0" fill="url(#c)"/><path d="m15.214844 56.066406h-5.292969v2.648438h5.292969zm0 0" fill="url(#d)"/><path d="m15.214844 56.066406h-5.292969v-2.644531h5.292969zm0 0" fill="url(#e)"/><path d="m48.292969 56.066406h5.289062v2.648438h-5.289062zm0 0" fill="url(#f)"/><path d="m13.230469 5.792969c-1.464844 0-2.644531 1.179687-2.644531 2.644531v44.984375c0 1.464844 1.179687 2.644531 2.644531 2.644531h37.046875c1.464844 0 2.644531-1.179687 2.644531-2.644531v-30.109375l-17.519531-17.519531zm27.785156 0 11.90625 11.90625v-9.261719c0-1.464844-1.179687-2.644531-2.644531-2.644531zm0 0" fill="url(#h)"/><path d="m14.554688 8.4375c-.734376 0-1.324219.589844-1.324219 1.324219v42.335937c0 .734375.589843 1.324219 1.324219 1.324219h34.398437c.734375 0 1.324219-.589844 1.324219-1.324219v-27.78125l-15.878906-15.878906zm0 0" fill="url(#i)"/><path d="m13.230469 5.792969c-1.464844 0-2.644531 1.179687-2.644531 2.644531v.664062c0-1.46875 1.179687-2.648437 2.644531-2.648437h22.171875l17.519531 17.519531v-.660156l-17.519531-17.519531zm27.785156 0 .660156.660156h8.601563c1.464844 0 2.644531 1.179687 2.644531 2.648437v-.664062c0-1.464844-1.179687-2.644531-2.644531-2.644531zm0 0" fill="#fff" fill-opacity=".392157"/><path d="m14.554688 8.4375c-.734376 0-1.324219.589844-1.324219 1.324219v.992187c0-.734375.589843-1.324218 1.324219-1.324218h19.84375l15.878906 15.878906v-.992188l-15.878906-15.878906zm0 0" fill-opacity=".235294"/><path d="m13.230469 52.148438v.621093c0 .734375.589843 1.324219 1.324219 1.324219h34.398437c.734375 0 1.324219-.589844 1.324219-1.324219v-.621093c0 .730468-.589844 1.320312-1.324219 1.320312h-34.398437c-.734376 0-1.324219-.589844-1.324219-1.320312zm0 0" fill="#fff" fill-opacity=".392157"/><path d="m440.036742 255.093763c-22.202605 0-40.035549 17.832944-40.035549 40.035549v1279.956578c0 22.202605 17.832944 40.035549 40.035549 40.035549h1039.979482c22.202605 0 40.035549-17.832944 40.035549-40.035549v-839.919836l-480.072291-480.072291zm0 0" fill="none" stroke="#212121" stroke-linecap="round" stroke-linejoin="round" stroke-width="11.338583" transform="scale(.0330761)"/><path d="m41.015625 5.792969 11.90625 11.90625v-.644531l-11.261719-11.261719zm-30.429687 46.984375v.644531c0 1.464844 1.179687 2.644531 2.644531 2.644531h37.046875c1.464844 0 2.644531-1.179687 2.644531-2.644531v-.644531c0 1.464844-1.179687 2.644531-2.644531 2.644531h-37.046875c-1.464844 0-2.644531-1.179687-2.644531-2.644531zm0 0" fill-opacity=".235294"/><path d="m400.001193 175.140764c-44.287112 0-79.952999 35.665888-79.952999 79.952999v1360.027676c0 44.287112 35.665887 79.952999 79.952999 79.952999h1120.05058c44.287111 0 79.952999-35.665887 79.952999-79.952999v-910.306819l-529.673856-529.673856zm840.037935 0 359.965644 359.965644v-280.012645c0-44.287111-35.665888-79.952999-79.952999-79.952999zm0 0" fill="none" stroke="#212121" stroke-linecap="round" stroke-linejoin="round" stroke-width="11.338583" transform="scale(.0330761)"/><path d="m31.753906 21.007812c-4.765625 0-8.601562 1.769532-8.601562 3.96875 0 2.199219 3.835937 3.96875 8.601562 3.96875 4.761719 0 8.597656-1.769531 8.597656-3.96875 0-2.199218-3.835937-3.96875-8.597656-3.96875zm-7.457031 7.9375c-.726563.582032-1.144531 1.261719-1.144531 1.984376 0 2.199218 3.835937 3.96875 8.601562 3.96875 4.761719 0 8.597656-1.769532 8.597656-3.96875 0-.722657-.414062-1.402344-1.140624-1.984376-1.484376 1.1875-4.261719 1.984376-7.457032 1.984376-3.195312 0-5.972656-.796876-7.457031-1.984376zm0 5.953126c-.726563.582031-1.144531 1.261718-1.144531 1.984374 0 2.199219 3.835937 3.96875 8.601562 3.96875 4.761719 0 8.597656-1.769531 8.597656-3.96875 0-.722656-.414062-1.402343-1.140624-1.984374-1.484376 1.1875-4.261719 1.984374-7.457032 1.984374-3.195312 0-5.972656-.796874-7.457031-1.984374zm0 0" fill="url(#j)"/><path d="m31.753906 21.007812c-4.765625 0-8.601562 1.769532-8.601562 3.96875 0 .109376.011718.222657.03125.332032.359375-2.042969 4.046875-3.640625 8.570312-3.640625 4.523438 0 8.207032 1.597656 8.570313 3.640625.019531-.109375.027343-.222656.027343-.332032 0-2.199218-3.835937-3.96875-8.597656-3.96875zm-7.457031 7.9375c-.726563.582032-1.144531 1.261719-1.144531 1.984376 0 .113281.011718.222656.03125.328124.105468-.597656.496094-1.15625 1.113281-1.652343 1.484375 1.191406 4.261719 1.984375 7.457031 1.984375 3.195313 0 5.972656-.792969 7.457032-1.984375.613281.496093 1.007812 1.054687 1.113281 1.652343.019531-.105468.027343-.214843.027343-.328124 0-.722657-.414062-1.402344-1.140624-1.984376-1.484376 1.1875-4.261719 1.984376-7.457032 1.984376-3.195312 0-5.972656-.796876-7.457031-1.984376zm0 5.953126c-.726563.582031-1.144531 1.261718-1.144531 1.984374 0 .113282.011718.222657.03125.332032.105468-.601563.496094-1.160156 1.113281-1.652344 1.484375 1.1875 4.261719 1.984375 7.457031 1.984375 3.195313 0 5.972656-.796875 7.457032-1.984375.613281.492188 1.007812 1.050781 1.113281 1.652344.019531-.109375.027343-.21875.027343-.332032 0-.722656-.414062-1.402343-1.140624-1.984374-1.484376 1.1875-4.261719 1.984374-7.457032 1.984374-3.195312 0-5.972656-.796874-7.457031-1.984374zm0 0" fill="#fff" fill-opacity=".392157"/><path d="m23.21875 25.472656c-.042969.164063-.066406.328125-.066406.496094 0 2.199219 3.835937 3.96875 8.601562 3.96875 4.761719 0 8.597656-1.769531 8.597656-3.96875 0-.167969-.019531-.332031-.066406-.496094-.523437 1.960938-4.132812 3.472656-8.53125 3.472656-4.402344 0-8.007812-1.511718-8.535156-3.472656zm0 5.953125c-.042969.164063-.066406.328125-.066406.496094 0 2.199219 3.835937 3.96875 8.601562 3.96875 4.761719 0 8.597656-1.769531 8.597656-3.96875 0-.167969-.019531-.332031-.066406-.496094-.523437 1.964844-4.132812 3.472657-8.53125 3.472657-4.402344 0-8.007812-1.507813-8.535156-3.472657zm0 5.953125c-.042969.164063-.066406.328125-.066406.496094 0 2.199219 3.835937 3.96875 8.601562 3.96875 4.761719 0 8.597656-1.769531 8.597656-3.96875 0-.167969-.019531-.332031-.066406-.496094-.523437 1.964844-4.132812 3.472656-8.53125 3.472656-4.402344 0-8.007812-1.507812-8.535156-3.472656zm0 0" fill-opacity=".235294"/><path d="m254.006994-46.953548c-38.12136 0-68.80593 14.154899-68.80593 31.746969s30.68457 31.746968 68.80593 31.746968c38.090112 0 68.774682-14.154898 68.774682-31.746968s-30.68457-31.746969-68.774682-31.746969zm-59.650554 63.493937c-5.811945 4.655805-9.155376 10.092786-9.155376 15.873484 0 17.59207 30.68457 31.746968 68.80593 31.746968 38.090112 0 68.774682-14.154898 68.774682-31.746968 0-5.780698-3.312184-11.217679-9.124129-15.873484-11.873866 9.499093-34.090494 15.873484-59.650553 15.873484-25.56006 0-47.776688-6.374391-59.650554-15.873484zm0 47.620452c-5.811945 4.655806-9.155376 10.092787-9.155376 15.873485 0 17.59207 30.68457 31.746968 68.80593 31.746968 38.090112 0 68.774682-14.154898 68.774682-31.746968 0-5.780698-3.312184-11.217679-9.124129-15.873485-11.873866 9.499093-34.090494 15.873485-59.650553 15.873485-25.56006 0-47.776688-6.374392-59.650554-15.873485zm0 0" fill="none" stroke="#212121" stroke-linecap="round" stroke-linejoin="round" stroke-width="3" transform="matrix(.125012 0 0 .125012 0 26.877566)"/></svg>

<?xml version="1.0" encoding="UTF-8"?>
<svg xmlns="http://www.w3.org/2000/svg" xmlns:xlink="http://www.w3.org/1999/xlink" width="64px" height="64px" viewBox="0 0 64 64" version="1.1">
<defs>
<linearGradient id="linear0" gradientUnits="userSpaceOnUse" x1="254" y1="233.5" x2="254" y2="254.666672" gradientTransform="matrix(0.148824,0,0,0.125012,-5.260672,26.87757)">
<stop offset="0" style="stop-color:rgb(0%,0%,0%);stop-opacity:0.27451;"/>
<stop offset="1" style="stop-color:rgb(0%,0%,0%);stop-opacity:0;"/>
</linearGradient>
<radialGradient id="radial0" gradientUnits="userSpaceOnUse" cx="450.908936" cy="189.579361" fx="450.908936" fy="189.579361" r="21.166656" gradientTransform="matrix(0.000000348341,-0.156265,-0.281277,-0.000000203077,100.953697,127.190665)">
<stop offset="0" style="stop-color:rgb(0%,0%,0%);stop-opacity:0.313726;"/>
<stop offset="0.222222" style="stop-color:rgb(0%,0%,0%);stop-opacity:0.27451;"/>
<stop offset="1" style="stop-color:rgb(0%,0%,0%);stop-opacity:0;"/>
</radialGradient>
<radialGradient id="radial1" gradientUnits="userSpaceOnUse" cx="450.908936" cy="189.579361" fx="450.908936" fy="189.579361" r="21.166656" gradientTransform="matrix(-0.000000348341,0.156265,0.281277,0.000000203077,-37.447629,-15.054958)">
<stop offset="0" style="stop-color:rgb(0%,0%,0%);stop-opacity:0.313726;"/>
<stop offset="0.222222" style="stop-color:rgb(0%,0%,0%);stop-opacity:0.27451;"/>
<stop offset="1" style="stop-color:rgb(0%,0%,0%);stop-opacity:0;"/>
</radialGradient>
<radialGradient id="radial2" gradientUnits="userSpaceOnUse" cx="450.908936" cy="189.579361" fx="450.908936" fy="189.579361" r="21.166656" gradientTransform="matrix(-0.000000348341,-0.156265,0.281277,-0.000000203077,-37.447629,127.190665)">
<stop offset="0" style="stop-color:rgb(0%,0%,0%);stop-opacity:0.313726;"/>
<stop offset="0.222222" style="stop-color:rgb(0%,0%,0%);stop-opacity:0.27451;"/>
<stop offset="1" style="stop-color:rgb(0%,0%,0%);stop-opacity:0;"/>
</radialGradient>
<radialGradient id="radial3" gradientUnits="userSpaceOnUse" cx="450.908936" cy="189.579361" fx="450.908936" fy="189.579361" r="21.166656" gradientTransform="matrix(0.000000348341,0.156265,-0.281277,0.000000203077,100.953693,-15.054959)">
<stop offset="0" style="stop-color:rgb(0%,0%,0%);stop-opacity:0.313726;"/>
<stop offset="0.222222" style="stop-color:rgb(0%,0%,0%);stop-opacity:0.27451;"/>
<stop offset="1" style="stop-color:rgb(0%,0%,0%);stop-opacity:0;"/>
</radialGradient>
<linearGradient id="linear1" gradientUnits="userSpaceOnUse" x1="254" y1="233.5" x2="254" y2="-168.666672" gradientTransform="matrix(0.125012,0,0,0.125012,0,26.877566)">
<stop offset="0" style="stop-color:rgb(87.843138%,87.843138%,87.843138%);stop-opacity:1;"/>
<stop offset="1" style="stop-color:rgb(93.333334%,93.333334%,93.333334%);stop-opacity:1;"/>
</linearGradient>
<linearGradient id="linear2" gradientUnits="userSpaceOnUse" x1="413.712219" y1="-474.701691" x2="413.712219" y2="-72.535034" gradientTransform="matrix(0.125012,0,0,0.125012,0,26.877566)">
<stop offset="0" style="stop-color:rgb(92.54902%,25.098041%,47.843137%);stop-opacity:1;"/>
<stop offset="1" style="stop-color:rgb(94.117647%,38.431373%,57.254905%);stop-opacity:1;"/>
</linearGradient>
<linearGradient id="linear3" gradientUnits="userSpaceOnUse" x1="940" y1="1215.118164" x2="940" y2="655.118103" gradientTransform="matrix(0.0330761,0,0,0.0330761,0.661522,-0.66152)">
<stop offset="0" style="stop-color:rgb(92.54902%,25.098041%,47.843137%);stop-opacity:1;"/>
<stop offset="1" style="stop-color:rgb(94.117647%,38.431373%,57.254905%);stop-opacity:1;"/>
</linearGradient>
</defs>
<g id="surface1">
<path style=" stroke:none;fill-rule:nonzero;fill:url(#linear0);" d="M 15.214844 56.066406 L 48.292969 56.066406 L 48.292969 58.714844 L 15.214844 58.714844 Z M 15.214844 56.066406 "/>
<path style=" stroke:none;fill-rule:nonzero;fill:url(#radial0);" d="M 48.292969 56.066406 L 53.582031 56.066406 L 53.582031 53.421875 L 48.292969 53.421875 Z M 48.292969 56.066406 "/>
<path style=" stroke:none;fill-rule:nonzero;fill:url(#radial1);" d="M 15.214844 56.066406 L 9.921875 56.066406 L 9.921875 58.714844 L 15.214844 58.714844 Z M 15.214844 56.066406 "/>
<path style=" stroke:none;fill-rule:nonzero;fill:url(#radial2);" d="M 15.214844 56.066406 L 9.921875 56.066406 L 9.921875 53.421875 L 15.214844 53.421875 Z M 15.214844 56.066406 "/>
<path style=" stroke:none;fill-rule:nonzero;fill:url(#radial3);" d="M 48.292969 56.066406 L 53.582031 56.066406 L 53.582031 58.714844 L 48.292969 58.714844 Z M 48.292969 56.066406 "/>
<path style=" stroke:none;fill-rule:nonzero;fill:url(#linear1);" d="M 39.8125 5.792969 L 13.230469 5.792969 C 11.765625 5.792969 10.585938 6.972656 10.585938 8.4375 L 10.585938 53.421875 C 10.585938 54.886719 11.765625 56.066406 13.230469 56.066406 L 50.277344 56.066406 C 51.742188 56.066406 52.921875 54.886719 52.921875 53.421875 L 52.921875 17.808594 Z M 39.8125 5.792969 "/>
<path style=" stroke:none;fill-rule:nonzero;fill:url(#linear2);" d="M 39.8125 5.792969 L 52.921875 17.808594 L 52.921875 8.4375 C 52.921875 6.972656 51.742188 5.792969 50.277344 5.792969 Z M 39.8125 5.792969 "/>
<path style=" stroke:none;fill-rule:nonzero;fill:rgb(0%,0%,0%);fill-opacity:0.235294;" d="M 10.585938 52.761719 L 10.585938 53.421875 C 10.585938 54.886719 11.765625 56.066406 13.230469 56.066406 L 50.277344 56.066406 C 51.742188 56.066406 52.921875 54.886719 52.921875 53.421875 L 52.921875 52.761719 C 52.921875 54.226562 51.742188 55.40625 50.277344 55.40625 L 13.230469 55.40625 C 11.765625 55.40625 10.585938 54.226562 10.585938 52.761719 Z M 10.585938 52.761719 "/>
<path style=" stroke:none;fill-rule:nonzero;fill:rgb(100%,100%,100%);fill-opacity:1;" d="M 13.230469 5.792969 C 11.765625 5.792969 10.585938 6.972656 10.585938 8.4375 L 10.585938 9.761719 C 10.585938 8.296875 11.765625 7.113281 13.230469 7.113281 L 39.8125 7.113281 L 52.921875 19.132812 L 52.921875 17.808594 L 39.8125 5.792969 Z M 13.230469 5.792969 "/>
<path style=" stroke:none;fill-rule:nonzero;fill:rgb(100%,100%,100%);fill-opacity:0.392157;" d="M 39.8125 5.792969 L 41.253906 7.113281 L 50.277344 7.113281 C 51.742188 7.113281 52.921875 8.296875 52.921875 9.761719 L 52.921875 8.4375 C 52.921875 6.972656 51.742188 5.792969 50.277344 5.792969 Z M 39.8125 5.792969 "/>
<path style=" stroke:none;fill-rule:nonzero;fill:rgb(0%,0%,0%);fill-opacity:0.235294;" d="M 39.8125 5.792969 L 52.921875 17.808594 L 52.921875 16.707031 L 41.015625 5.792969 Z M 39.8125 5.792969 "/>
<path style="fill:none;stroke-width:11.338583;stroke-linecap:round;stroke-linejoin:round;stroke:rgb(12.941177%,12.941177%,12.941177%);stroke-opacity:1;stroke-miterlimit:4;" d="M 1203.664647 175.140764 L 400.001193 175.140764 C 355.714081 175.140764 320.048194 210.806652 320.048194 255.093763 L 320.048194 1615.121439 C 320.048194 1659.408551 355.714081 1695.074438 400.001193 1695.074438 L 1520.051773 1695.074438 C 1564.338884 1695.074438 1600.004772 1659.408551 1600.004772 1615.121439 L 1600.004772 538.413179 Z M 1203.664647 175.140764 " transform="matrix(0.0330761,0,0,0.0330761,0,0)"/>
<path style="fill:none;stroke-width:3;stroke-linecap:round;stroke-linejoin:round;stroke:rgb(12.941177%,12.941177%,12.941177%);stroke-opacity:1;stroke-miterlimit:4;" d="M 318.469588 -168.660675 L 423.334574 -72.544854 L 423.334574 -147.506445 C 423.334574 -159.224076 413.897975 -168.660675 402.180344 -168.660675 Z M 318.469588 -168.660675 " transform="matrix(0.125012,0,0,0.125012,0,26.877566)"/>
<path style=" stroke:none;fill-rule:nonzero;fill:url(#linear3);" d="M 31.753906 21.007812 C 26.988281 21.007812 23.152344 22.777344 23.152344 24.976562 C 23.152344 27.175781 26.988281 28.945312 31.753906 28.945312 C 36.515625 28.945312 40.351562 27.175781 40.351562 24.976562 C 40.351562 22.777344 36.515625 21.007812 31.753906 21.007812 Z M 24.296875 28.945312 C 23.570312 29.527344 23.152344 30.207031 23.152344 30.929688 C 23.152344 33.128906 26.988281 34.898438 31.753906 34.898438 C 36.515625 34.898438 40.351562 33.128906 40.351562 30.929688 C 40.351562 30.207031 39.9375 29.527344 39.210938 28.945312 C 37.726562 30.132812 34.949219 30.929688 31.753906 30.929688 C 28.558594 30.929688 25.78125 30.132812 24.296875 28.945312 Z M 24.296875 34.898438 C 23.570312 35.480469 23.152344 36.160156 23.152344 36.882812 C 23.152344 39.082031 26.988281 40.851562 31.753906 40.851562 C 36.515625 40.851562 40.351562 39.082031 40.351562 36.882812 C 40.351562 36.160156 39.9375 35.480469 39.210938 34.898438 C 37.726562 36.085938 34.949219 36.882812 31.753906 36.882812 C 28.558594 36.882812 25.78125 36.085938 24.296875 34.898438 Z M 24.296875 34.898438 "/>
<path style=" stroke:none;fill-rule:nonzero;fill:rgb(100%,100%,100%);fill-opacity:0.392157;" d="M 31.753906 21.007812 C 26.988281 21.007812 23.152344 22.777344 23.152344 24.976562 C 23.152344 25.085938 23.164062 25.199219 23.183594 25.308594 C 23.542969 23.265625 27.230469 21.667969 31.753906 21.667969 C 36.277344 21.667969 39.960938 23.265625 40.324219 25.308594 C 40.34375 25.199219 40.351562 25.085938 40.351562 24.976562 C 40.351562 22.777344 36.515625 21.007812 31.753906 21.007812 Z M 24.296875 28.945312 C 23.570312 29.527344 23.152344 30.207031 23.152344 30.929688 C 23.152344 31.039062 23.164062 31.152344 23.183594 31.257812 C 23.289062 30.660156 23.679688 30.101562 24.296875 29.605469 C 25.78125 30.796875 28.558594 31.589844 31.753906 31.589844 C 34.949219 31.589844 37.726562 30.796875 39.210938 29.605469 C 39.824219 30.101562 40.21875 30.660156 40.324219 31.257812 C 40.34375 31.152344 40.351562 31.039062 40.351562 30.929688 C 40.351562 30.207031 39.9375 29.527344 39.210938 28.945312 C 37.726562 30.132812 34.949219 30.929688 31.753906 30.929688 C 28.558594 30.929688 25.78125 30.132812 24.296875 28.945312 Z M 24.296875 34.898438 C 23.570312 35.480469 23.152344 36.160156 23.152344 36.882812 C 23.152344 36.996094 23.164062 37.105469 23.183594 37.214844 C 23.289062 36.613281 23.679688 36.054688 24.296875 35.5625 C 25.78125 36.75 28.558594 37.546875 31.753906 37.546875 C 34.949219 37.546875 37.726562 36.75 39.210938 35.5625 C 39.824219 36.054688 40.21875 36.613281 40.324219 37.214844 C 40.34375 37.105469 40.351562 36.996094 40.351562 36.882812 C 40.351562 36.160156 39.9375 35.480469 39.210938 34.898438 C 37.726562 36.085938 34.949219 36.882812 31.753906 36.882812 C 28.558594 36.882812 25.78125 36.085938 24.296875 34.898438 Z M 24.296875 34.898438 "/>
<path style=" stroke:none;fill-rule:nonzero;fill:rgb(0%,0%,0%);fill-opacity:0.235294;" d="M 23.21875 25.472656 C 23.175781 25.636719 23.152344 25.800781 23.152344 25.96875 C 23.152344 28.167969 26.988281 29.9375 31.753906 29.9375 C 36.515625 29.9375 40.351562 28.167969 40.351562 25.96875 C 40.351562 25.800781 40.332031 25.636719 40.285156 25.472656 C 39.761719 27.433594 36.152344 28.945312 31.753906 28.945312 C 27.351562 28.945312 23.746094 27.433594 23.21875 25.472656 Z M 23.21875 31.425781 C 23.175781 31.589844 23.152344 31.753906 23.152344 31.921875 C 23.152344 34.121094 26.988281 35.890625 31.753906 35.890625 C 36.515625 35.890625 40.351562 34.121094 40.351562 31.921875 C 40.351562 31.753906 40.332031 31.589844 40.285156 31.425781 C 39.761719 33.390625 36.152344 34.898438 31.753906 34.898438 C 27.351562 34.898438 23.746094 33.390625 23.21875 31.425781 Z M 23.21875 37.378906 C 23.175781 37.542969 23.152344 37.707031 23.152344 37.875 C 23.152344 40.074219 26.988281 41.84375 31.753906 41.84375 C 36.515625 41.84375 40.351562 40.074219 40.351562 37.875 C 40.351562 37.707031 40.332031 37.542969 40.285156 37.378906 C 39.761719 39.34375 36.152344 40.851562 31.753906 40.851562 C 27.351562 40.851562 23.746094 39.34375 23.21875 37.378906 Z M 23.21875 37.378906 "/>
<path style="fill:none;stroke-width:3;stroke-linecap:round;stroke-linejoin:round;stroke:rgb(12.941177%,12.941177%,12.941177%);stroke-opacity:1;stroke-miterlimit:4;" d="M 254.006994 -46.953548 C 215.885634 -46.953548 185.201064 -32.798649 185.201064 -15.206579 C 185.201064 2.385491 215.885634 16.540389 254.006994 16.540389 C 292.097106 16.540389 322.781676 2.385491 322.781676 -15.206579 C 322.781676 -32.798649 292.097106 -46.953548 254.006994 -46.953548 Z M 194.35644 16.540389 C 188.544495 21.196194 185.201064 26.633175 185.201064 32.413873 C 185.201064 50.005943 215.885634 64.160841 254.006994 64.160841 C 292.097106 64.160841 322.781676 50.005943 322.781676 32.413873 C 322.781676 26.633175 319.469492 21.196194 313.657547 16.540389 C 301.783681 26.039482 279.567053 32.413873 254.006994 32.413873 C 228.446934 32.413873 206.230306 26.039482 194.35644 16.540389 Z M 194.35644 64.160841 C 188.544495 68.816647 185.201064 74.253628 185.201064 80.034326 C 185.201064 97.626396 215.885634 111.781294 254.006994 111.781294 C 292.097106 111.781294 322.781676 97.626396 322.781676 80.034326 C 322.781676 74.253628 319.469492 68.816647 313.657547 64.160841 C 301.783681 73.659934 279.567053 80.034326 254.006994 80.034326 C 228.446934 80.034326 206.230306 73.659934 194.35644 64.160841 Z M 194.35644 64.160841 " transform="matrix(0.125012,0,0,0.125012,0,26.877566)"/>
</g>
</svg>
